apex/img/login.svg

<svg width="18" height="18" viewBox="0 0 18 18" fill="none" xmlns="http://www.w3.org/2000/svg">
<g clip-path="url(#clip0)">
<path d="M6.74981 8.62521C4.68211 8.62521 2.99988 6.94312 2.99988 4.87542C2.99988 2.80772 4.68211 1.12549 6.74981 1.12549C8.8175 1.12549 10.4997 2.80772 10.4997 4.87542C10.4997 6.94312 8.8175 8.62521 6.74981 8.62521ZM6.74981 2.25045C5.3024 2.25045 4.12484 3.42788 4.12484 4.87542C4.12484 6.32282 5.3024 7.50024 6.74981 7.50024C8.19721 7.50024 9.37477 6.32282 9.37477 4.87542C9.37477 3.42788 8.19721 2.25045 6.74981 2.25045Z" fill="white"/>
<path d="M12.9371 16.875H0.562482C0.251991 16.875 0 16.623 0 16.3126V13.6876C0 11.7234 1.59819 10.1252 3.56234 10.1252H9.93723C11.9014 10.1252 13.4996 11.7234 13.4996 13.6876V16.3126C13.4996 16.623 13.2476 16.875 12.9371 16.875ZM1.12496 15.7501H12.3746V13.6876C12.3746 12.3437 11.2811 11.2502 9.93723 11.2502H3.56234C2.21848 11.2502 1.12496 12.3437 1.12496 13.6876V15.7501Z" fill="white"/>
<path d="M17.437 8.81283H11.0622C10.7517 8.81283 10.4998 8.56084 10.4998 8.25035C10.4998 7.93986 10.7517 7.68787 11.0622 7.68787H17.437C17.7475 7.68787 17.9995 7.93986 17.9995 8.25035C17.9995 8.56084 17.7475 8.81283 17.437 8.81283Z" fill="white"/>
<path d="M14.4371 11.8127C14.293 11.8127 14.1491 11.7579 14.0395 11.6478C13.8198 11.4279 13.8198 11.0717 14.0395 10.852L16.642 8.24954L14.0395 5.6471C13.8198 5.42738 13.8198 5.07116 14.0395 4.85144C14.2593 4.63172 14.6155 4.63172 14.8353 4.85144L17.8352 7.8513C18.0549 8.07102 18.0549 8.42737 17.8352 8.64709L14.8353 11.647C14.7251 11.7579 14.581 11.8127 14.4371 11.8127Z" fill="white"/>
</g>
<defs>
<clipPath id="clip0">
<rect width="18" height="18" fill="white"/>
</clipPath>
</defs>
</svg>

<svg width="18" height="18" fill="none" xmlns="http://www.w3.org/2000/svg"><g clip-path="url(#clip0)" fill="#fff"><path d="M6.75 8.625A3.754 3.754 0 013 4.875a3.754 3.754 0 013.75-3.75 3.754 3.754 0 013.75 3.75 3.754 3.754 0 01-3.75 3.75zm0-6.375a2.628 2.628 0 00-2.625 2.625A2.628 2.628 0 006.75 7.5a2.628 2.628 0 002.625-2.625A2.628 2.628 0 006.75 2.25zm6.187 14.625H.562A.563.563 0 010 16.313v-2.625a3.567 3.567 0 013.562-3.563h6.375a3.567 3.567 0 013.563 3.563v2.625c0 .31-.252.562-.563.562zM1.125 15.75h11.25v-2.062a2.44 2.44 0 00-2.438-2.438H3.562a2.44 2.44 0 00-2.437 2.438v2.062zm16.312-6.937h-6.375a.563.563 0 010-1.125h6.375a.563.563 0 010 1.125z"/><path d="M14.437 11.813a.563.563 0 01-.398-.96l2.603-2.603-2.602-2.603a.563.563 0 11.795-.796l3 3c.22.22.22.576 0 .796l-3 3a.559.559 0 01-.398.166z"/></g><defs><clipPath id="clip0"><path fill="#fff" d="M0 0h18v18H0z"/></clipPath></defs></svg>
